Newaita-dark/actions/32/object-rotate-left.svg

<svg height="32" viewBox="0 0 32 32" width="32" xmlns="http://www.w3.org/2000/svg"><g fill="#e0e0e0"><path d="m5.292969 2.894531c-1.464844 0-2.648438 1.183594-2.648438 2.648438v9.261719c0 1.464843 1.183594 2.644531 2.648438 2.644531h5.292969c1.464843 0 2.644531-1.179688 2.644531-2.644531v-9.261719c0-1.464844-1.179688-2.648438-2.644531-2.648438zm1.320312 2.648438h2.648438c.734375 0 1.324219.589843 1.324219 1.320312v6.617188c0 .734375-.589844 1.324219-1.324219 1.324219h-2.648438c-.730469 0-1.320312-.589844-1.320312-1.324219v-6.617188c0-.730469.589843-1.320312 1.320312-1.320312zm0 0"/><path d="m29.105469 21.417969c0-1.464844-1.179688-2.644531-2.644531-2.644531h-9.261719c-1.464844 0-2.644531 1.179687-2.644531 2.644531v5.292969c0 1.464843 1.179687 2.644531 2.644531 2.644531h9.261719c1.464843 0 2.644531-1.179688 2.644531-2.644531zm0 0"/><path d="m15.875 8.789062v3.0625c1.710938 1.109376 3.167969 2.566407 4.277344 4.273438h3.058594c-1.628907-3.136719-4.195313-5.707031-7.335938-7.335938zm0 0"/></g></svg>

<?xml version="1.0" encoding="UTF-8"?>
<svg xmlns="http://www.w3.org/2000/svg" xmlns:xlink="http://www.w3.org/1999/xlink" width="32px" height="32px" viewBox="0 0 32 32" version="1.1">
<g id="surface1">
<path style=" stroke:none;fill-rule:nonzero;fill:rgb(87.843138%,87.843138%,87.843138%);fill-opacity:1;" d="M 5.292969 2.894531 C 3.828125 2.894531 2.644531 4.078125 2.644531 5.542969 L 2.644531 14.804688 C 2.644531 16.269531 3.828125 17.449219 5.292969 17.449219 L 10.585938 17.449219 C 12.050781 17.449219 13.230469 16.269531 13.230469 14.804688 L 13.230469 5.542969 C 13.230469 4.078125 12.050781 2.894531 10.585938 2.894531 Z M 6.613281 5.542969 L 9.261719 5.542969 C 9.996094 5.542969 10.585938 6.132812 10.585938 6.863281 L 10.585938 13.480469 C 10.585938 14.214844 9.996094 14.804688 9.261719 14.804688 L 6.613281 14.804688 C 5.882812 14.804688 5.292969 14.214844 5.292969 13.480469 L 5.292969 6.863281 C 5.292969 6.132812 5.882812 5.542969 6.613281 5.542969 Z M 6.613281 5.542969 "/>
<path style=" stroke:none;fill-rule:nonzero;fill:rgb(87.843138%,87.843138%,87.843138%);fill-opacity:1;" d="M 29.105469 21.417969 C 29.105469 19.953125 27.925781 18.773438 26.460938 18.773438 L 17.199219 18.773438 C 15.734375 18.773438 14.554688 19.953125 14.554688 21.417969 L 14.554688 26.710938 C 14.554688 28.175781 15.734375 29.355469 17.199219 29.355469 L 26.460938 29.355469 C 27.925781 29.355469 29.105469 28.175781 29.105469 26.710938 Z M 29.105469 21.417969 "/>
<path style=" stroke:none;fill-rule:nonzero;fill:rgb(87.843138%,87.843138%,87.843138%);fill-opacity:1;" d="M 15.875 8.789062 L 15.875 11.851562 C 17.585938 12.960938 19.042969 14.417969 20.152344 16.125 L 23.210938 16.125 C 21.582031 12.988281 19.015625 10.417969 15.875 8.789062 Z M 15.875 8.789062 "/>
</g>
</svg>
